X:1
T:Lurgan Town
M:2/4
L:1/8
K:C
 G2| cC C3/2 C/2| B,C D3/2 C/2| B,C DE| FG E/2C/2 c/2c/2| c C/2C/2 CC|\
 B,C D3/2 C/2| B,C DE| FG E/2 C G/2| Gc cB/2-c/2| dB c E/2F/2| Gc cc|\
 dc B/2- G F/2| Gc cc| dc B/2 B B/2| cG GE| FG E/2- C3/2| cC C2| B,C D2|\
 B,C D3/2 E/2| FG E/2 C3/2|||
